svg/chevron_up.svg

<svg xmlns="http://www.w3.org/2000/svg" viewBox="0 0 32 32" enable-background="new 0 0 32 32"><path d="M 16 5.6875 L 15.28125 6.40625 L 2.28125 19.40625 L 1.59375 20.09375 L 2.28125 20.8125 L 6.1875 24.71875 L 6.90625 25.40625 L 7.59375 24.71875 L 16 16.3125 L 24.40625 24.71875 L 25.09375 25.40625 L 25.8125 24.71875 L 29.71875 20.8125 L 30.40625 20.09375 L 29.71875 19.40625 L 16.71875 6.40625 L 16 5.6875 z M 16 8.53125 L 27.5625 20.125 L 25.125 22.5625 L 16.71875 14.1875 L 16 13.5 L 15.28125 14.1875 L 6.875 22.5625 L 4.4375 20.125 L 16 8.53125 z" color="#000" overflow="visible" enable-background="accumulate"/></svg>

<svg xmlns="http://www.w3.org/2000/svg" viewBox="0 0 32 32"><path d="M16 5.688l-.72.718-13 13-.686.688.687.718L6.19 24.72l.718.686.688-.687L16 16.312l8.406 8.406.688.686.718-.687 3.907-3.907.686-.72-.687-.687-13-13-.72-.718zm0 2.843l11.563 11.595-2.438 2.438-8.406-8.375L16 13.5l-.72.688-8.405 8.374-2.438-2.437L16 8.53z"/></svg>
